X: 78
T: Dunphy's
B: begged borrowed and stolen
M:4/4
Q: 1/4=100
K:Gmajor
V:1 
(3DEF|:"G"GDBD G2 (3GBg|"D"f2ed ecAG|(3FAF DE FGAc|"G"(3BAG "D"AF "G"GFED| GDBD "G"G2 (3GBg|"D"f2ed ecAG|FAdB "A"cAFG|"D"(3ABA GF "G"G2 (3DEF:| 
|:"G"dcBd gdBd|(3gfg "D" af "G"gdBf|g2 (3fgf "A"ed^cd|(3efe d^c "D"d2 (3def| "G"g2dc (3BdB (3GAB|"A"(3cec (3AcA "D"(3FAF DF|"G"GBdB "D"cAFG|"A"(3ABA GF "G"G2:|
% abcbook-tune_id 627e2b1fa5ba487e8a4bb91d


% abcbook-boost 0
% abcbook-tablature 
% abcbook-transpose 
% abcbook-lastupdated 1652725431112
% abcbook-soundfonts 
% abcbook-repeats 3


